X:208
T:La gigue du sans travail
N:Source: Isidore Soucy
Z:Patrice Boucher
M:4/4
L:1/8
K:D
de |: fdAF DFAF | DFBF A2ef | gfed cAce | b2a2 a2de |
fdAF DFAF | DFBF A2ef | gfed cABc |1 dfec dcde :|2 dfec d2de |:
f2f2 g2g2 | a4 a2fa | gfed cAce | b2a2 a2de | 
f2f2 g2g2 | a4 a2fa | gfed cAce |1 dfec d2de :|2 dfec dcde |]

